!!!COM:	Bach, Johann Sebastian
!!!CDT:	1685/02/21/-1750/07/28/
!!!OTL@@DE:	Weg, mein Herz, mit den Gedanken
!!!SCT:	BWV 25/6
!!!PC#:	254
!!!AGN:	chorale
**kern	**kern	**kern	**kern
*ICvox	*ICvox	*ICvox	*ICvox
*Ibass	*Itenor	*Ialto	*Isoprn
*I"Bass	*I"Tenor	*I"Alto	*I"Soprano
*>[A,A,B]	*>[A,A,B]	*>[A,A,B]	*>[A,A,B]
*>norep[A,B]	*>norep[A,B]	*>norep[A,B]	*>norep[A,B]
*>A	*>A	*>A	*>A
*clefF4	*clefGv2	*clefG2	*clefG2
*k[]	*k[]	*k[]	*k[]
*C:	*C:	*C:	*C:
*M4/4	*M4/4	*M4/4	*M4/4
*met(c)	*met(c)	*met(c)	*met(c)
*MM100	*MM100	*MM100	*MM100
=1-	=1-	=1-	=1-
4C	4e	4g	4cc
4G	4B	4g	4dd
4c	4c	4g	4ee
4B	4d	4g	4dd
=2	=2	=2	=2
4A	8eL	4a	4cc
.	8f#J	.	.
4G	4g	4d	4b
4D	8gL	4d	4a
.	8f#J	.	.
4G;	4B;	4d;	4g;
=3	=3	=3	=3
4E	4c	4g	4cc
4D	4fnX	8aL	4dd
.	.	8bJ	.
4C	8gL	8ccL	4ee
.	8cJ	8gJ	.
4BB	[4d	4g	8ddL
.	.	.	16eeL
.	.	.	16ffJJ
=4	=4	=4	=4
4C	8dL]	4g	4ee
.	8cJ	.	.
4GG	8cL	4g	8.ddL
.	8BJ	.	.
.	.	.	16ccJk
2C;	2e;	2g;	2cc;
=5:|!	=5:|!	=5:|!	=5:|!
*>B	*>B	*>B	*>B
4c	4c	4g	4ee
4A	4c	8aL	4ff
.	.	16b-L	.
.	.	16ccJJ	.
4E	4c	4b-	4gg
4F	8cL	4a	4ff
.	8dJ	.	.
=6	=6	=6	=6
4C#	8eL	4g	4ee
.	8AJ	.	.
4D	8AL	8fL	4dd
.	8BJ	16aL	.
.	.	16g#JJ	.
2AA;	2c#X;	2a;	2ee;
=7	=7	=7	=7
4E	8cnXL	4gnX	4gg
.	8dJ	.	.
4C	4e	4cc	4gg
4F	8fL	4cc	4aa
.	8eJ	.	.
4G	4d	4b	4gg
=8	=8	=8	=8
8AL	4c	4a	4ff
8BJ	.	.	.
4c	4c	8gL	4ee
.	.	8f#J	.
2G;	2B;	2g;	2dd;
=9	=9	=9	=9
4c	8cL	4g	4ee
.	8dJ	.	.
4C	4e	8ccL	4gg
.	.	8bJ	.
4D	4fnX	8aL	4ffnX
.	.	8bJ	.
4E	8gL	4cc	8eeL
.	8GJ	.	8ddJ
=10	=10	=10	=10
4F	8AL	4a	4cc
.	8eJ	.	.
4F#	8dL	4a	4dd
.	8cJ	.	.
4G	2B	4b	2ee
4G#	.	4e	.
=11	=11	=11	=11
2A;	2A;	2e;	2cc;
4GnX	4B-	8gL	4ee
.	.	8aJ	.
4C	4E	4b-	4gg
=12	=12	=12	=12
4D	4F	8aL	4ff
.	.	8bnXJ	.
8EL	8GL	4cc	4ee
8FJ	8AJ	.	.
8GL	4BnX	4g	4dd
8FJ	.	.	.
8EL	4c	4g	4cc
8CJ	.	.	.
=13	=13	=13	=13
2GG	4c	2g	2dd
.	4B	.	.
2C;	2e;	2g;	2cc;
==	==	==	==
*-	*-	*-	*-
!!!hum2abc: -Q ''
!!!title: @{PC#}. @{OTL@@DE}
!!!YOR1: 371 vierstimmige Choralges&auml;nge von Johann Sebastian Bach, 
!!!YOR2: 4th ed. by Alfred D&ouml;rffel (Leipzig: Breitkopf und H&auml;rtel, 
!!!YOR2: c.1875). 178 pp. Plate "V.A.10".  reprint: J.S. Bach, 371 Four-Part 
!!!YOR4: Chorales (New York: Associated Music Publishers, Inc., c.1940).
!!!SMS: B&H, 4th ed, Alfred D&ouml;rffel, c.1875, plate V.A.10
!!!EED:  Craig Stuart Sapp
!!!EEV:  2009/05/22
